!!!!SEGMENT: pl-kk--kk-i-382--006-001_anonim--nro-2-kyrie.krn
!!!cenid: 18xx:1461
!!!COM: Anonim
!!!COM-rismid: pe30004985
!!!CDT:
!!!CNT:
!!!OPR: Nro 2
!!!OTL: Kyrie
!!!OMV: 002
!!!PDT:
!!!AGN: Sacred
!!!SMS-siglum: PL-Kk
!!!SMS-shelfmark: Kk.I.382
!!!SMS-shelfwork: 002-002 M
!!!SMS-variant:
!!!SMS-altvar:
!!!NIFC-rismid: 1001139089
!!!URL-scan: http://repozytorium.nifc.pl/skany/pl-kk-nut--i-382
!!!ONB-nifc: UWAGA: obsada: S/T 1, T 2, A/B 1, B 2. Kyrie + Christe. Skan 0006, 0077, 0149-50, 0222
!!!key:
**kern	**text	**kern	**text	**kern	**text	**kern	**text
*part4	*part4	*part3	*part3	*part2	*part2	*part1	*part1
*staff4	*staff4	*staff3	*staff3	*staff2	*staff2	*staff1	*staff1
*Ibass	*	*Itenor	*	*Ialto	*	*Itenor	*
*I"Basso II	*	*I"Tenore II	*	*I"Alto vel Basso I	*	*I"Soprano vel Tenore I.	*
*I'B 2	*	*I'T 2	*	*I'A (B)	*	*I'S (T 1)	*
*clefF4	*	*clefC4	*	*clefC3	*	*clefC1	*
*k[b-]	*	*k[b-]	*	*k[b-]	*	*k[b-]	*
*F:	*	*F:	*	*F:	*	*F:	*
*M4/4	*	*M4/4	*	*M4/4	*	*M4/4	*
*met(C.)	*	*met(C.)	*	*met(C.)	*	*met(C.)	*
=1	=1	=1	=1	=1	=1	=1	=1
*2\right	*	*2\right	*	*2\right	*	*2\right	*
!LO:TX:t=P:problem:all\right:global	!	!LO:TX:a:t=P:problem:all\right:global	!	!	!	!	!
!LO:TX:a:t=Kyrie	!	!LO:TX:a:t=Kyrie\nin F.	!	!	!	!LO:TX:a:t=Kyrie	!
!LO:TX:t=P:problem:napis "Kyrie" na pięciolinii przed kluczem	!	!LO:TX:a:t=P:problem:napis "Kyrie in F" na pięciolinii przed kluczem	!	!	!	!LO:TX:a:t=P:problem:napis "Kyrie" przed kluczem	!
(>4F\	Ky-	(>4A\	Ky-	2.c\	Ky-	2.a\	Ky-
4G\)	.	4B-\)	.	.	.	.	.
(>4A\	-ri-	(>4c\	-ri-	.	.	.	.
!	!	!	!	!LO:TX:t=P:problem:all\right:global	!	!LO:TX:t=P:problem:all\right:global	!
4F\)	.	4A\)	.	4c\	-ri-	4a\	-ri-
=2	=2	=2	=2	=2	=2	=2	=2
!	!	!LO:SIC:v:s=2B-	!	!	!	!	!
(>4B-\	-e	2c\	-e	2d\	-e	2b-\	-e
4A\)	.	.	.	.	.	.	.
!	!	!LO:SIC:v:s=2B-	!	!	!	!	!
(>4G\	e-	2c\	e-	2d\	e-	2b-\	e-
4F\)	.	.	.	.	.	.	.
=3	=3	=3	=3	=3	=3	=3	=3
(>4E\	-le-	1c	-lei-	1e	-lei-	1g	-lei-
4D\)	.	.	.	.	.	.	.
(>4E\	-i-	.	.	.	.	.	.
4C\)	.	.	.	.	.	.	.
=4	=4	=4	=4	=4	=4	=4	=4
1F	-son	2c\	-son	1f	-son	1a	-son
.	.	2r	.	.	.	.	.
=5	=5	=5	=5	=5	=5	=5	=5
(>4F\	Ky-	2.c\	Ky-	2.a\	Ky-	2.ff\	Ky-
4E\)	.	.	.	.	.	.	.
(>4F\	-ri-	.	.	.	.	.	.
4D\)	.	4Bn\	-ri-	4a\	-ri-	4ff\	-ri-
=6	=6	=6	=6	=6	=6	=6	=6
(>4E\	-e	2c\	-e	2.g\	-e	2.ee\	-e
4D\)	.	.	.	.	.	.	.
(>4E\	e-	2c\	e-	.	.	.	.
4C\)	.	.	.	4g\	e-	4ee\	e-
!LO:LB:g=original	!	!	!	!	!	!	!
=7	=7	=7	=7	=7	=7	=7	=7
(>4F\	-le-	1Bn	-lei-	1f	-lei-	1dd	-lei-
4D\)	.	.	.	.	.	.	.
2G\	-i-	.	.	.	.	.	.
=8	=8	=8	=8	=8	=8	=8	=8
1C	-son	2G/	-son	1e	-son	2.cc\	-son,
.	.	2r	.	.	.	.	.
.	.	.	.	.	.	4r	.
!	!	!LO:LB:g=original	!	!	!	!	!
=9	=9	=9	=9	=9	=9	=9	=9
2C/	Ky-	2c\	Ky-	2g\	Ky-	2ee\	Ky-
2c\	-ri-	2c\	-ri-	2g\	-ri-	2ee\	-ri-
!	!	!	!	!	!	!LO:LB:g=original	!
=10	=10	=10	=10	=10	=10	=10	=10
1c	-e	2.c\	-e	(>8g\L	-e	(>8ee\L	-e
.	.	.	.	8f\	.	8dd\	.
.	.	.	.	8e\	.	8cc\	.
.	.	.	.	8f\J)	.	8dd\J)	.
.	.	.	.	2g\	e	2ee\	e
.	.	4r	.	.	.	.	.
!	!	!	!	!LO:LB:g=original	!	!	!
=11	=11	=11	=11	=11	=11	=11	=11
2C/	Ky-	2c\	Ky-	2g\	Ky-	2ee\	Ky-
2B-X\	-ri-	2c\	-ri-	2g\	-ri-	2ee\	-ri-
=12	=12	=12	=12	=12	=12	=12	=12
1B-X	-e	2.c\	-e	8g\L	-e	(>8ee\L	-e
.	.	.	.	8f\	.	8dd\	.
.	.	.	.	8e\	.	8cc\	.
.	.	.	.	8f\J	.	8dd\J)	.
.	.	.	.	2g\	.	2ee\	.
.	.	4r	.	.	.	.	.
=13	=13	=13	=13	=13	=13	=13	=13
4A\	Ky-	4A\	Ky-	4f\	Ky-	4cc\	Ky-
4G\	-ri-	4B-\	-ri-	4g\	-ri-	4b-\	-ri-
4F\	-e	4c\	-e	4a\	-e	4a\	-e
4E\	e-	4c\	e-	4b-\	e-	4g\	e-
=14	=14	=14	=14	=14	=14	=14	=14
4F\	-le-	4f\	-le-	4a\	-le-	4cc\	-le-
4G\	-i-	4c\	-i-	4g\	-i-	4b-\	-i-
4A\	-son	4c\	-son	4f\	-son	4a\	-son
4F\	e-	4A\	e-	4a\	e-	4cc\	e-
!LO:LB:g=original	!	!	!	!	!	!	!
=15	=15	=15	=15	=15	=15	=15	=15
(>4B-\	-le-	2B-\	-le-	(>4g\	-le-	(>4dd\	-le-
4G\)	.	.	.	4b-\)	.	4gg\)	.
(>4c\	-i-	2c\	-i-	(>4a\	-i-	(>4ff\	-i-
4C/)	.	.	.	4g\)	.	4ee\)	.
!	!	!	!	!	!	!LO:LB:g=original	!
=16	=16	=16	=16	=16	=16	=16	=16
1F	-son	2c\	-son	2.a\	-son	2.ff\	-son
.	.	2r	.	.	.	.	.
.	.	.	.	4r	.	4r	.
!	!	!LO:LB:g=original	!	!	!	!	!
=17	=17	=17	=17	=17	=17	=17	=17
2C/	Ky-	2c\	Ky-	2g\	Ky-	2ee\	Ky-
2c\	-ri-	2c\	-ri-	2g\	-ri-	2ee\	-ri-
=18	=18	=18	=18	=18	=18	=18	=18
1c	-e	2.c\	-e	8g\L	-e	8ee\L	-e
.	.	.	.	8f\	.	8dd\	.
.	.	.	.	8e\	.	8cc\	.
.	.	.	.	8f\J	.	8dd\J	.
.	.	.	.	2g\	.	2ee\	.
.	.	4r	.	.	.	.	.
!	!	!	!	!LO:LB:g=original	!	!	!
=19	=19	=19	=19	=19	=19	=19	=19
2C/	Ky-	2c\	Ky-	2g\	Ky-	2ee\	Ky-
2B-X\	-ri-	2c\	-ri-	2g\	-ri-	2ee\	-ri-
=20	=20	=20	=20	=20	=20	=20	=20
1B-	-e	2.c\	-e	8g\L	-e	8ee\L	-e
.	.	.	.	8f\	.	8dd\	.
.	.	.	.	8e\	.	8cc\	.
.	.	.	.	8f\J	.	8dd\J	.
.	.	.	.	2g\	.	2ee\	.
.	.	4r	.	.	.	.	.
=21	=21	=21	=21	=21	=21	=21	=21
4A\	Ky-	4A\	Ky-	4f\	Ky-	4cc\	Ky-
4G\	-ri-	4B-\	-ri-	4g\	-ri-	4b-\	-ri-
4F\	-e	4c\	-e	4a\	-e	4a\	-e
4E\	e-	4c\	e-	4b-\	e-	4g\	e-
=22	=22	=22	=22	=22	=22	=22	=22
4F\	-le-	4f\	-le-	4a\	-le-	4cc\	-le-
4G\	-i-	4c\	-i-	4g\	-i-	4b-\	-i-
!LO:SIC:l:v:s=-son	!	!	!	!	!	!	!
4A\	-som	4c\	-son	4f\	-son	4a\	-son
4F\	e-	4A\	e-	4a\	e-	4cc\	e-
!LO:LB:g=original	!	!	!	!	!	!LO:LB:g=original	!
=23	=23	=23	=23	=23	=23	=23	=23
(>4B-\	-le-	2B-\	-le-	(>4g\	-le-	2dd\	-le-
4G\)	.	.	.	4b-\)	.	.	.
(>4c\	-i-	2c\	-i-	(>4a\	-i-	2ee\	-i-
4C/)	.	.	.	4g\)	.	.	.
!	!	!LO:LB:g=original	!	!	!	!	!
=24	=24	=24	=24	=24	=24	=24	=24
!	!	!	!	!LO:TX:t=P:problem:dopisana kreska ołówkiem za nutą	!	!	!
2F\	-son	2c\	-son	2a\	-son	2ff\	-son
2A\	e-	2A\	e-	2f\	Ky-	2cc\	e-
=25	=25	=25	=25	=25	=25	=25	=25
(>4B-\	-le-	1F	-lei-	1f	-ri-	(>4dd\	-le-
4A\)	.	.	.	.	.	4cc\)	.
(>4G\	-i-	.	.	.	.	(>4b-\	-i-
4F\)	.	.	.	.	.	4a\)	.
=26	=26	=26	=26	=26	=26	=26	=26
(>4E\	-son	2G/	-son	(>4g\	-e	2b-\	-son
4C\)	.	.	.	4e\)	.	.	.
(>4F\	e-	2A/	e-	(>4a\	e-	2cc\	e-
4AA/)	.	.	.	4f\)	.	.	.
=27	=27	=27	=27	=27	=27	=27	=27
2BB-/	-le-	2d\	-le-	2g\	-le-	2b-\	-le-
2C/	-i-	2c\	-i-	2e\	-i-	2g\	-i-
=28	=28	=28	=28	=28	=28	=28	=28
1FF	-son.	1c	-son.	1f	-son.	1a	-son.
!	!	!	!	!LO:TX:i:b:t=V&colon;S&colon;	!	!	!
!LO:LB:g=original	!	!LO:LB:g=original	!	!LO:PB:g=original	!	!LO:LB:g=original	!
==29	==29	==29	==29	==29	==29	==29	==29
*clefF4	*	*clefC4	*	*clefC3	*	*clefC1	*
*k[b-]	*	*k[b-]	*	*k[b-]	*	*k[b-]	*
*M4/4	*	*M4/4	*	*M4/4	*	*M4/4	*
*met(C.)	*	*met(C.)	*	*met(C.)	*	*met(C.)	*
!	!	!	!	!	!	!LO:TX:a:t=Christe	!
!	!	!	!	!	!	!LO:TX:t=P:problem:napis "Christe" przed kluczem	!
!LO:TX:t=P:problem:klucz przed znakami przykluczowymi	!	!LO:TX:t=P:problem:klucz przed znakami przykluczowymi	!	!LO:TX:t=P:problem:klucz przed znakami przykluczowymi	!	!LO:TX:t=P:problem:klucz przed znakami przykluczowymi	!
2F\	Chri-	2c\	Chri-	2c\	Chri-	2a\	Chri-
4F\	-ste	4c\	-ste	4f\	-ste	4a\	-ste
4E\	e-	4c\	e-	4g\	e-	4b-\	e-
=30	=30	=30	=30	=30	=30	=30	=30
4F\	-le-	2c\	-lei-	2f\	-lei-	2a\	-lei-
4A\	-i-	.	.	.	.	.	.
2c\	-son	2c\	-son	2e\	-son	2g\	-son
=31	=31	=31	=31	=31	=31	=31	=31
2F\	Chri-	2c\	Chri-	2a\	Chri-	2ff\	Chri-
4E\	-ste	4c\	-ste	4b-\	-ste	4gg\	-ste
4F\	e-	4c\	e-	4a\	e-	4ff\	e-
=32	=32	=32	=32	=32	=32	=32	=32
2C/	-lei-	2c\	-lei-	2a\	-lei-	2ff\	-lei-
2c\	-son	2c\	-son	2g\	-son	2ee\	-son
=33	=33	=33	=33	=33	=33	=33	=33
(>4F\	Chri-	(>2c\	Chri-	(>2f\	Chri-	1a	Chri-
4G\	.	.	.	.	.	.	.
4A\	.	2e-X\)	.	2c\)	.	.	.
4F\)	.	.	.	.	.	.	.
=34	=34	=34	=34	=34	=34	=34	=34
2B-\	-ste	2f\	-ste	2d\	-ste	2b-\	-ste
!LO:TX:b:i:t=V&colon;S&colon;	!	!	!	!	!	!	!
!LO:TX:a:t=P:problem:napis na pięciolinii za kreską taktową	!	!	!	!	!	!	!
2BB-/	e-	2B-\	e-	(>4g\	e-	(>4ee\	e-
.	.	.	.	4a\)	.	4ff\)	.
!LO:PB:g=original	!	!	!	!	!	!	!
=35	=35	=35	=35	=35	=35	=35	=35
2.BB-/	-le-	1d	-lei-	(>4b-\	-le-	(>4gg\	-le-
.	.	.	.	4a\)	.	4ff\)	.
.	.	.	.	(>4g\	-i-	(>4ee\	-i-
4BBn/	-i-	.	.	4f\)	.	4dd\)	.
=36	=36	=36	=36	=36	=36	=36	=36
1C	-son	2c\	-son	2g\	-son	2.ee\	-son
.	.	2r	.	2r	.	.	.
.	.	.	.	.	.	4r	.
!	!	!	!	!LO:LB:g=original	!	!LO:LB:g=original	!
=37	=37	=37	=37	=37	=37	=37	=37
(>4C\	Chri-	1en	Chri-	1b-	Chri-	1gg	Chri-
4D\	.	.	.	.	.	.	.
4E\	.	.	.	.	.	.	.
4C\)	.	.	.	.	.	.	.
!	!	!LO:LB:g=original	!	!	!	!	!
=38	=38	=38	=38	=38	=38	=38	=38
(>4F\	-ste	2c\	-ste	2a\	-ste	2ff\	-ste
4c\	.	.	.	.	.	.	.
(>4A\	e-	2A\	e-	2f\	e-	2cc\	e-
4F\))	.	.	.	.	.	.	.
=39	=39	=39	=39	=39	=39	=39	=39
(>4B-\	-le-	2B-\	-le-	2g\	-le-	2dd\	-le-
4G\)	.	.	.	.	.	.	.
(>4c\	-i-	2G/	-i-	2e\	-i-	2cc\	-i-
4C/)	.	.	.	.	.	.	.
=40	=40	=40	=40	=40	=40	=40	=40
1F	-son	2A\	-son	2.f\	-son	2.cc\	-son
.	.	2r	.	.	.	.	.
.	.	.	.	4r	.	4r	.
=41	=41	=41	=41	=41	=41	=41	=41
4G\	Chri-	1e	Chri-	1b-	Chri-	1gg	Chri-
4F\	.	.	.	.	.	.	.
4E\	.	.	.	.	.	.	.
4C\	.	.	.	.	.	.	.
!LO:LB:g=original	!	!	!	!	!	!	!
=42	=42	=42	=42	=42	=42	=42	=42
(>4F\	-ste	2c\	-ste	2a\	-ste	2ff\	-ste
4C/)	.	.	.	.	.	.	.
(>4A\	e-	2A\	e-	2f\	e-	2cc\	e-
4F\)	.	.	.	.	.	.	.
=43	=43	=43	=43	=43	=43	=43	=43
2BB-/	-le-	2B-\	-le-	2g\	-le-	2dd\	-le-
2C/	-i-	2G/	-i-	2e\	-i-	2cc\	-i-
=44	=44	=44	=44	=44	=44	=44	=44
1FF	-son.	1A	-son.	1f	-son.	1cc	-son.
!LO:TX:a:t=Kyrie da Capo.	!	!LO:TX:a:t=Kyrie da Capo.	!	!	!	!LO:TX:a:t=Kyrie Da Capo.	!
!LO:TX:a:t=P:problem:napis na pięciolinii za kreską	!	!LO:TX:a:t=P:problem:napis na pięciolinii za kreską	!	!	!	!LO:TX:a:t=P:problem:napis na pięciolinii za kreską	!
==45	==45	==45	==45	==45	==45	==45	==45
*	*	*	*	*M4/4	*	*	*
*	*	*	*	*met(C.)	*	*	*
!LO:TX:t=P:problem:da capo nie rozpisane	!	!LO:TX:t=P:problem:da capo nie rozpisane	!	!	!	!LO:TX:t=P:problem:da capo nie rozpisane	!
(>4F\yy	Ky-	(>4A\yy	Ky-	2.c\	Ky-	2.a\yy	Ky-
4G\)yy	.	4B-\)yy	.	.	.	.	.
(>4A\yy	-ri-	(>4c\yy	-ri-	.	.	.	.
4F\)yy	.	4A\)yy	.	4c\	-ri-	4a\yy	-ri-
=46	=46	=46	=46	=46	=46	=46	=46
!	!	!LO:SIC:v:s=2B-	!	!	!	!	!
(>4B-\yy	-e	2c\yy	-e	2d\	-e	2b-\yy	-e
4A\)yy	.	.	.	.	.	.	.
!	!	!LO:SIC:v:s=2B-	!	!	!	!	!
(>4G\yy	e-	2c\yy	e-	2d\	e-	2b-\yy	e-
4F\)yy	.	.	.	.	.	.	.
=47	=47	=47	=47	=47	=47	=47	=47
(>4E\yy	-le-	1cyy	-lei-	1e	-lei-	1gyy	-lei-
4D\)yy	.	.	.	.	.	.	.
(>4E\yy	-i-	.	.	.	.	.	.
4C\)yy	.	.	.	.	.	.	.
!	!	!	!	!LO:LB:g=original	!	!	!
=48	=48	=48	=48	=48	=48	=48	=48
1Fyy	-son	2c\yy	-son	1f	-son	1ayy	-son
.	.	2ryy	.	.	.	.	.
=49	=49	=49	=49	=49	=49	=49	=49
(>4F\yy	Ky-	2.c\yy	Ky-	2.a\	Ky-	2.ff\yy	Ky-
4E\)yy	.	.	.	.	.	.	.
(>4F\yy	-ri-	.	.	.	.	.	.
4D\)yy	.	4Bn\yy	-ri-	4a\	-ri-	4ff\yy	-ri-
=50	=50	=50	=50	=50	=50	=50	=50
(>4E\yy	-e	2c\yy	-e	2.g\	-e	2.ee\yy	-e
4D\)yy	.	.	.	.	.	.	.
(>4E\yy	e-	2c\yy	e-	.	.	.	.
4C\)yy	.	.	.	4g\	e-	4ee\yy	e-
=51	=51	=51	=51	=51	=51	=51	=51
(>4F\yy	-le-	1Bnyy	-lei-	1f	-lei-	1ddyy	-lei-
4D\)yy	.	.	.	.	.	.	.
2G\yy	-i-	.	.	.	.	.	.
=52	=52	=52	=52	=52	=52	=52	=52
1Cyy	-son	2G/yy	-son	1e	-son	2.cc\yy	-son,
.	.	2ryy	.	.	.	.	.
.	.	.	.	.	.	4ryy	.
=53	=53	=53	=53	=53	=53	=53	=53
2C/yy	Ky-	2c\yy	Ky-	2g\	Ky-	2ee\yy	Ky-
2c\yy	-ri-	2c\yy	-ri-	2g\	-ri-	2ee\yy	-ri-
=54	=54	=54	=54	=54	=54	=54	=54
1cyy	-e	2.c\yy	-e	(>8g\L	-e	(>8ee\Lyy	-e
.	.	.	.	8f\	.	8dd\yy	.
.	.	.	.	8e\	.	8cc\yy	.
.	.	.	.	8f\J	.	8dd\J)yy	.
.	.	.	.	2g\)	.	2ee\yy	e
.	.	4ryy	.	.	.	.	.
=55	=55	=55	=55	=55	=55	=55	=55
2C/yy	Ky-	2c\yy	Ky-	2g\	Ky-	2ee\yy	Ky-
2B-X\yy	-ri-	2c\yy	-ri-	2g\	-ri-	2ee\yy	-ri-
=56	=56	=56	=56	=56	=56	=56	=56
1B-Xyy	-e	2.c\yy	-e	(>8g\L	-e	(>8ee\Lyy	-e
.	.	.	.	8f\	.	8dd\yy	.
.	.	.	.	8e\	.	8cc\yy	.
.	.	.	.	8f\J	.	8dd\J)yy	.
.	.	.	.	2g\)	.	2ee\yy	.
.	.	4ryy	.	.	.	.	.
=57	=57	=57	=57	=57	=57	=57	=57
4A\yy	Ky-	4A\yy	Ky-	4f\	Ky-	4cc\yy	Ky-
4G\yy	-ri-	4B-\yy	-ri-	4g\	-ri-	4b-\yy	-ri-
4F\yy	-e	4c\yy	-e	4a\	-e	4a\yy	-e
4E\yy	e-	4c\yy	e-	4b-\	e-	4g\yy	e-
!	!	!	!	!LO:LB:g=original	!	!	!
=58	=58	=58	=58	=58	=58	=58	=58
4F\yy	-le-	4f\yy	-le-	4a\	-le-	4cc\yy	-le-
4G\yy	-i-	4c\yy	-i-	4g\	-i-	4b-\yy	-i-
4A\yy	-son	4c\yy	-son	4f\	-son	4a\yy	-son
4F\yy	e-	4A\yy	e-	4a\	e-	4cc\yy	e-
=59	=59	=59	=59	=59	=59	=59	=59
(>4B-\yy	-le-	2B-\yy	-le-	(>4g\	-le-	(>4dd\yy	-le-
4G\)yy	.	.	.	4b-\)	.	4gg\)yy	.
(>4c\yy	-i-	2c\yy	-i-	(>4a\	-i-	(>4ff\yy	-i-
4C/)yy	.	.	.	4g\)	.	4ee\)yy	.
=60	=60	=60	=60	=60	=60	=60	=60
1Fyy	-son	2c\yy	-son	2.a\	-son,	2.ff\yy	-son
.	.	2ryy	.	.	.	.	.
.	.	.	.	4r	.	4ryy	.
=61	=61	=61	=61	=61	=61	=61	=61
2C/yy	Ky-	2c\yy	Ky-	2g\	Ky-	2ee\yy	Ky-
2c\yy	-ri-	2c\yy	-ri-	2g\	-ri-	2ee\yy	-ri-
=62	=62	=62	=62	=62	=62	=62	=62
1cyy	-e	2.c\yy	-e	(>8g\L	-e	8ee\Lyy	-e
.	.	.	.	8f\	.	8dd\yy	.
.	.	.	.	8e\	.	8cc\yy	.
.	.	.	.	8f\J	.	8dd\Jyy	.
.	.	.	.	2g\)	.	2ee\yy	.
.	.	4ryy	.	.	.	.	.
=63	=63	=63	=63	=63	=63	=63	=63
2C/yy	Ky-	2c\yy	Ky-	2g\	Ky-	2ee\yy	Ky-
2B-X\yy	-ri-	2c\yy	-ri-	2g\	-ri-	2ee\yy	-ri-
=64	=64	=64	=64	=64	=64	=64	=64
1B-yy	-e	2.c\yy	-e	(>8g\L	-e	8ee\Lyy	-e
.	.	.	.	8f\	.	8dd\yy	.
.	.	.	.	8e\	.	8cc\yy	.
.	.	.	.	8f\J	.	8dd\Jyy	.
.	.	.	.	2g\)	.	2ee\yy	.
.	.	4ryy	.	.	.	.	.
=65	=65	=65	=65	=65	=65	=65	=65
4A\yy	Ky-	4A\yy	Ky-	4f\	Ky-	4cc\yy	Ky-
4G\yy	-ri-	4B-\yy	-ri-	4g\	-ri-	4b-\yy	-ri-
4F\yy	-e	4c\yy	-e	4a\	-e	4a\yy	-e
4E\yy	e-	4c\yy	e-	4b-\	e-	4g\yy	e-
!	!	!	!	!LO:LB:g=original	!	!	!
=66	=66	=66	=66	=66	=66	=66	=66
4F\yy	-le-	4f\yy	-le-	4a\	-le-	4cc\yy	-le-
4G\yy	-i-	4c\yy	-i-	4g\	-i-	4b-\yy	-i-
!LO:SIC:l:v:s=-son	!	!	!	!	!	!	!
4A\yy	-som	4c\yy	-son	4f\	-son	4a\yy	-son
4F\yy	e-	4A\yy	e-	4a\	e-	4cc\yy	e-
=67	=67	=67	=67	=67	=67	=67	=67
(>4B-\yy	-le-	2B-\yy	-le-	(>4g\	-le-	2dd\yy	-le-
4G\)yy	.	.	.	4b-\)	.	.	.
(>4c\yy	-i-	2c\yy	-i-	(>4a\	-i-	2ee\yy	-i-
4C/)yy	.	.	.	4g\)	.	.	.
=68	=68	=68	=68	=68	=68	=68	=68
2F\yy	-son	2c\yy	-son	2a\	-son	2ff\yy	-son
2A\yy	e-	2A\yy	e-	2f\	Ky-	2cc\yy	e-
=69	=69	=69	=69	=69	=69	=69	=69
(>4B-\yy	-le-	1Fyy	-lei-	1f	-ri-	(>4dd\yy	-le-
4A\)yy	.	.	.	.	.	4cc\)yy	.
(>4G\yy	-i-	.	.	.	.	(>4b-\yy	-i-
4F\)yy	.	.	.	.	.	4a\)yy	.
=70	=70	=70	=70	=70	=70	=70	=70
(>4E\yy	-son	2G/yy	-son	(>4g\	-e	2b-\yy	-son
4C\)yy	.	.	.	4e\)	.	.	.
(>4F\yy	e-	2A/yy	e-	(>4a\	e-	2cc\yy	e-
4AA/)yy	.	.	.	4f\)	.	.	.
=71	=71	=71	=71	=71	=71	=71	=71
2BB-/yy	-le-	2d\yy	-le-	2g\	-le-	2b-\yy	-le-
2C/yy	-i-	2c\yy	-i-	2e\	-i-	2g\yy	-i-
=72	=72	=72	=72	=72	=72	=72	=72
1FFyy	-son.	1cyy	-son.	1f	-son.	1ayy	-son.
==	==	==	==	==	==	==	==
*-	*-	*-	*-	*-	*-	*-	*-
!!!system-decoration: [(s1,s2,s3,s4)]
!!!RDF**kern: > = above
!!!RDF**kern: < = below
!!!EED: Mateusz Mrugas
!!!EST: 2021-02-02
!!!AIN: 1 alto 1 bass 2 tenor
!!!ENC: Andrzej Borzym
!!!END: 2021-01-28
